X:6415
T:TAILTDL4- Little wat ye wha's coming
O:england
S:Scots Musical Museum #572
Q:1/4=120
L:1/8
M:C
K:D mixolydian
G/ G3/2 G B c2 G E|G/2 G3/2 B G A2F D|\
G/2 G3/2 G B cA B G|A c B d A2 F D||\
d d A F F d A F|d d A F E A G E|\
d d A d c A B G|A c B d A2 F D|]


